!!!COM: Music21
!!!OTL: waltz_I-Will-Raise-My-Sail-Black
!!!OMV: waltz_I-Will-Raise-My-Sail-Black
**kern
*clefG2
*k[b-]
*F:
*M3/4
=1
8fL
8gJ
=
4a
4dd
12eeL
12dd
12cc#XJ
=
4dd
4d
8fL
8gJ
=
4.a
8g
8gL
8fJ
=
2f
8aL
8b-J
=
4cc
8aL
8ccJ
8ddL
8eeJ
=
4ff
8eeL
8ddJ
8eeL
8cc#XJ
=
4dd
8ccL
8aJ
8gL
8fJ
!!linebreak:original
=
2d
8aL
8b-J
=
4cc
8aL
8ccJ
8ddL
8eeJ
=
4ff
8eeL
8ddJ
8eeL
8cc#XJ
=
8ddL
8ccJ
8aL
8gJ
8aL
8fJ
=
2d
12dL
12f
12gJ
=
4a
4dd
8eeL
8cc#XJ
=
4dd
4d
8fL
8gJ
=
4a
8gL
8fJ
8.gL
16fJk
!!linebreak:original
=
2f
8aL
8b-J
=
4cc
8aL
8ccJ
8ddL
8eeJ
=
4ff
8eeL
8ddJ
8eeL
8cc#XJ
=
8ddL
8ccJ
8aL
8gJ
8aL
8fJ
=
2d
8fL
8gJ
=
4a
4dd
8eeL
8cc#XJ
=
4dd
4d
8fL
8gJ
=
4a
8gL
8fJ
8.gL
16fJk
!!linebreak:original
=
2.d
=||
*-
